X:153
T:Ms. Traci Lamar
R:double jig/huapango
C:2012 L.E. McCullough 
M:6/8
L:1/8
K:D
e||: fAA gfe | fag fed | ~B3 dBg | BdB gfe | 
fAA gfe | fag fed | G=cd ege |1 ed=c d2e :||2 ed=c d2A ||:
~B3 dBf-| fef edB | ~A3 eAf-| fag fed | 
~B3 dBf- | fef edB | Ace gfe | fdc d2A :||
~B3 dBf-| fef agf | ~A3 eAa-| agf gfe | 
~B3 dBf- | fef edB | Ace gfe | fdc d2e ||
<end>
<start>
